alura/assets/api/cursos/power-bi-conhecendo-servico.svg

<svg xmlns="http://www.w3.org/2000/svg" viewBox="0 0 50 50"><path fill="#dc5e82" d="M48.8 13.2c0-1.6-2.9-4.7-4.5-5.1l-24.4 3L.6 23.9 2.4 36l3.6.7 42.8-15.2v-8.3z"/><path fill="#f56991" d="M7.3 7.6c-.3 0-.7-.1-1-.1-2.1 0-3.8 1.6-3.8 3.8V23L44.3 8.1l-37-.5z"/><path fill="#444" d="M12.6 44c-1.5 0-2.7-1.2-2.7-2.7V34c0-1.5 1.2-2.7 2.7-2.7s2.7 1.2 2.7 2.7v7.3c0 1.5-1.2 2.7-2.7 2.7zm10.9-3.4V25.5c0-1.8-1.2-3.3-2.7-3.3-1.5 0-2.7 1.5-2.7 3.3v15.2c0 1.8 1.2 3.3 2.7 3.3 1.4-.1 2.7-1.6 2.7-3.4zm8.7 1.3V28.2c0-1.2-1.2-2.1-2.7-2.1-1.5 0-2.7.9-2.7 2.1V42c0 1.2 1.2 2.1 2.7 2.1 1.5-.1 2.7-1 2.7-2.2zm8.4-.5V18.8c0-1.5-1.2-2.7-2.7-2.7-1.5 0-2.7 1.2-2.7 2.7v22.6c0 1.5 1.2 2.7 2.7 2.7 1.5-.1 2.7-1.3 2.7-2.7z"/><path fill="none" stroke="#444" stroke-linecap="round" stroke-linejoin="round" stroke-miterlimit="10" stroke-width="2" d="M7.3 37.8s-6.1.4-6.1-5.4V13.2S1 8.1 6.5 8.1h36.7s5.6-.6 5.6 5.1v20.7s1 4.6-6 4.6"/></svg>

<?xml version="1.0" encoding="utf-8"?>
<!-- Generator: Adobe Illustrator 26.5.0, SVG Export Plug-In . SVG Version: 6.00 Build 0)  -->
<svg version="1.1" id="Layer_1" xmlns="http://www.w3.org/2000/svg" xmlns:xlink="http://www.w3.org/1999/xlink" x="0px" y="0px"
	 viewBox="0 0 50 50" style="enable-background:new 0 0 50 50;" xml:space="preserve">
<style type="text/css">
	.st0{fill:#DC5E82;}
	.st1{fill:#F56991;}
	.st2{fill:#444444;}
	.st3{fill:none;stroke:#444444;stroke-width:2;stroke-linecap:round;stroke-linejoin:round;stroke-miterlimit:10;}
</style>
<path class="st0" d="M48.8,13.2c0-1.6-2.9-4.7-4.5-5.1l-24.4,3L0.6,23.9L2.4,36L6,36.7l42.8-15.2L48.8,13.2z"/>
<path class="st1" d="M7.3,7.6c-0.3,0-0.7-0.1-1-0.1c-2.1,0-3.8,1.6-3.8,3.8V23L44.3,8.1L7.3,7.6z"/>
<path class="st2" d="M12.6,44c-1.5,0-2.7-1.2-2.7-2.7V34c0-1.5,1.2-2.7,2.7-2.7s2.7,1.2,2.7,2.7v7.3C15.3,42.8,14.1,44,12.6,44z
	 M23.5,40.6V25.5c0-1.8-1.2-3.3-2.7-3.3c-1.5,0-2.7,1.5-2.7,3.3v15.2c0,1.8,1.2,3.3,2.7,3.3C22.2,43.9,23.5,42.4,23.5,40.6z
	 M32.2,41.9V28.2c0-1.2-1.2-2.1-2.7-2.1c-1.5,0-2.7,0.9-2.7,2.1v13.8c0,1.2,1.2,2.1,2.7,2.1C31,44,32.2,43.1,32.2,41.9z M40.6,41.4
	V18.8c0-1.5-1.2-2.7-2.7-2.7c-1.5,0-2.7,1.2-2.7,2.7v22.6c0,1.5,1.2,2.7,2.7,2.7C39.4,44,40.6,42.8,40.6,41.4z"/>
<path class="st3" d="M7.3,37.8c0,0-6.1,0.4-6.1-5.4s0-19.2,0-19.2S1,8.1,6.5,8.1s36.7,0,36.7,0s5.6-0.6,5.6,5.1s0,20.7,0,20.7
	s1,4.6-6,4.6"/>
</svg>
